packages/ffe-icons/icons/open/500/sm/keyboard_onscreen.svg

<svg xmlns="http://www.w3.org/2000/svg" height="20" viewBox="0 -960 960 960" width="20"><path d="M371.96-312h215.757Q603-312 613.5-322.289q10.5-10.29 10.5-25.5Q624-363 613.662-373.5 603.323-384 588.04-384H372.283Q357-384 346.5-373.711q-10.5 10.29-10.5 25.5Q336-333 346.338-322.5 356.677-312 371.96-312ZM170.87-183.869q-34.483 0-58.742-24.271t-24.259-58.77v-426.504q0-34.499 24.259-58.608 24.259-24.109 58.742-24.109h618.26q34.483 0 58.742 24.271t24.259 58.77v426.504q0 34.499-24.259 58.608-24.259 24.109-58.742 24.109H170.87Zm0-446.349h618.26v-62.912H170.87v62.912Zm0 363.348h618.26V-552H170.87v285.13Zm0 0V-552v285.13ZM251.789-432Q267-432 277.5-442.289q10.5-10.29 10.5-25.5Q288-483 277.711-493.5q-10.29-10.5-25.5-10.5Q237-504 226.5-493.711q-10.5 10.29-10.5 25.5Q216-453 226.289-442.5q10.29 10.5 25.5 10.5Zm114 0Q381-432 391.5-442.289q10.5-10.29 10.5-25.5Q402-483 391.711-493.5q-10.29-10.5-25.5-10.5Q351-504 340.5-493.711q-10.5 10.29-10.5 25.5Q330-453 340.289-442.5q10.29 10.5 25.5 10.5Zm114 0Q495-432 505.5-442.289q10.5-10.29 10.5-25.5Q516-483 505.711-493.5q-10.29-10.5-25.5-10.5Q465-504 454.5-493.711q-10.5 10.29-10.5 25.5Q444-453 454.289-442.5q10.29 10.5 25.5 10.5Zm114 0Q609-432 619.5-442.289q10.5-10.29 10.5-25.5Q630-483 619.711-493.5q-10.29-10.5-25.5-10.5Q579-504 568.5-493.711q-10.5 10.29-10.5 25.5Q558-453 568.289-442.5q10.29 10.5 25.5 10.5Zm114 0Q723-432 733.5-442.289q10.5-10.29 10.5-25.5Q744-483 733.711-493.5q-10.29-10.5-25.5-10.5Q693-504 682.5-493.711q-10.5 10.29-10.5 25.5Q672-453 682.289-442.5q10.29 10.5 25.5 10.5Z"/></svg>

<svg xmlns="http://www.w3.org/2000/svg" height="20" viewBox="0 -960 960 960" width="20"><path d="M371.96-312h215.76q15.28 0 25.78-10.29 10.5-10.29 10.5-25.5t-10.34-25.71Q603.32-384 588.04-384H372.28q-15.28 0-25.78 10.29-10.5 10.29-10.5 25.5t10.34 25.71q10.34 10.5 25.62 10.5ZM170.87-183.87q-34.48 0-58.74-24.27-24.26-24.27-24.26-58.77v-426.5q0-34.5 24.26-58.61t58.74-24.11h618.26q34.48 0 58.74 24.27 24.26 24.27 24.26 58.77v426.5q0 34.5-24.26 58.61t-58.74 24.11H170.87Zm0-446.35h618.26v-62.91H170.87v62.91Zm0 363.35h618.26V-552H170.87v285.13Zm0 0V-552v285.13ZM251.79-432q15.21 0 25.71-10.29t10.5-25.5q0-15.21-10.29-25.71t-25.5-10.5q-15.21 0-25.71 10.29t-10.5 25.5q0 15.21 10.29 25.71t25.5 10.5Zm114 0q15.21 0 25.71-10.29t10.5-25.5q0-15.21-10.29-25.71t-25.5-10.5q-15.21 0-25.71 10.29t-10.5 25.5q0 15.21 10.29 25.71t25.5 10.5Zm114 0q15.21 0 25.71-10.29t10.5-25.5q0-15.21-10.29-25.71t-25.5-10.5q-15.21 0-25.71 10.29t-10.5 25.5q0 15.21 10.29 25.71t25.5 10.5Zm114 0q15.21 0 25.71-10.29t10.5-25.5q0-15.21-10.29-25.71t-25.5-10.5q-15.21 0-25.71 10.29t-10.5 25.5q0 15.21 10.29 25.71t25.5 10.5Zm114 0q15.21 0 25.71-10.29t10.5-25.5q0-15.21-10.29-25.71t-25.5-10.5q-15.21 0-25.71 10.29t-10.5 25.5q0 15.21 10.29 25.71t25.5 10.5Z"/></svg>
